icon-themes/sifr_svg/cmd/lc_fontworkshapetype.fontwork-arch-up-pour.svg

<svg viewBox="0 0 24 24" xmlns="http://www.w3.org/2000/svg"><g fill="#555753"><path d="m12 6c-5.6841492.0047225-10.4285734 4.339386-10.9453125 10-.0546875.535463-.0546875 1-.0546875 2h8v-1.263672c.1365706-1.547861 1.446126-2.73526 3-2.736328 1.553874.0011 2.863429 1.188467 3 2.736328v1.263672h8c0-1 0-1.473478-.05078-2-.516877-5.662105-5.263573-9.9972956-10.94922-10zm0 2c4.579513.00543 8.424762 3.44884 8.933594 8h-4.046875c-.474265-2.32345-2.515367-3.994184-4.886719-4-2.3735545.003-4.4178688 1.674399-4.8925781 4h-4.0474219c.5096298-4.55 4.3582486-7.9975467 8.94-8z"/><path d="m12 8c4.579513.00543 8.424762 3.44884 8.933594 8h-4.046875c-.474265-2.32345-2.515367-3.994184-4.886719-4-2.3735545.003-4.4178688 1.674399-4.8925781 4h-4.0474219c.5096298-4.55 4.3582486-7.9975467 8.94-8z" opacity=".35"/></g></svg>

<svg xmlns="http://www.w3.org/2000/svg" viewBox="0 0 24 24">
  <path
     style="fill:#555753"
     d="M 12,6 C 6.3158508,6.0047225 1.5714266,10.339386 1.0546875,16 1,16.535463 1,17 1,18 H 9 V 16.736328 C 9.1365706,15.188467 10.446126,14.001068 12,14 c 1.553874,0.0011 2.863429,1.188467 3,2.736328 V 18 h 8 C 23,17 23,16.526522 22.94922,16 22.432343,10.337895 17.685647,6.0027044 12,6 Z m 0,2 c 4.579513,0.00543 8.424762,3.44884 8.933594,8 H 16.886719 C 16.412454,13.67655 14.371352,12.005816 12,12 9.6264455,12.003 7.5821312,13.674399 7.1074219,16 H 3.06 C 3.5696298,11.45 7.4182486,8.0024533 12,8 Z"
     />
  <path
     style="opacity:0.35;fill:#555753"
     d="m 12,8 c 4.579513,0.00543 8.424762,3.44884 8.933594,8 H 16.886719 C 16.412454,13.67655 14.371352,12.005816 12,12 9.6264455,12.003 7.5821312,13.674399 7.1074219,16 H 3.06 C 3.5696298,11.45 7.4182486,8.0024533 12,8 Z"
     />
</svg>
